gr/virtual-machine.svg

<svg xmlns="http://www.w3.org/2000/svg" viewBox="0 0 24 24" height="1em" width="1em">
  <path fill="none" stroke="#000" stroke-width="2" d="M1 23h13V10H1v13Zm9-4h13V6H10v13Zm-5-5h13V1H5v13Z"/>
</svg>

<svg xmlns="http://www.w3.org/2000/svg" viewBox="0 0 24 24" height="1em" width="1em">
  <path fill="none" stroke="#000" stroke-width="2" d="M1,23 L14,23 L14,10 L1,10 L1,23 Z M10,19 L23,19 L23,6 L10,6 L10,19 Z M5,14 L18,14 L18,1 L5,1 L5,14 Z"/>
</svg>
